icons/ticket-cross-outline.svg

<svg xmlns="http://www.w3.org/2000/svg" width="24" height="24" viewBox="0 0 24 24">
  <path d="M20,4 C21.6568542,4 23,5.34314575 23,7 L23,7 L23,10 C23,10.5522847 22.5522847,11 22,11 L22,11 L21,11 C20.4756765,11 20.041054,11.4054732 20.0048111,11.8874652 L20.0048111,11.8874652 L20,12 C20,12.5243235 20.4054732,12.958946 20.8874652,12.9951889 L20.8874652,12.9951889 L21,13 L22,13 C22.5522847,13 23,13.4477153 23,14 L23,14 L23,17 C23,18.6568542 21.6568542,20 20,20 L20,20 L4,20 C2.34314575,20 1,18.6568542 1,17 L1,17 L1,14 C1,13.4477153 1.44771525,13 2,13 L2,13 L3,13 C3.52432346,13 3.95894602,12.5945268 3.99518895,12.1125348 L3.99518895,12.1125348 L4,12 C4,11.4756765 3.59452679,11.041054 3.11253483,11.0048111 L3.11253483,11.0048111 L3,11 L2,11 C1.44771525,11 1,10.5522847 1,10 L1,10 L1,7 C1,5.34314575 2.34314575,4 4,4 L4,4 Z M20,6 L4,6 C3.44771525,6 3,6.44771525 3,7 L3,7 L3,9 L3.22283965,9.00819622 C4.78446558,9.12340873 6,10.4263275 5.99932532,12.0367275 L5.99932532,12.0367275 L5.99180378,12.2228396 C5.87659127,13.7844656 4.57367247,15 3,15 L3,15 L3,17 C3,17.5128358 3.38604019,17.9355072 3.88337887,17.9932723 L3.88337887,17.9932723 L4,18 L20,18 C20.5522847,18 21,17.5522847 21,17 L21,17 L21,14.999 L20.7771604,14.9918038 C19.2155344,14.8765913 18,13.5736725 18.0006747,11.9632725 L18.0006747,11.9632725 L18.0081962,11.7771604 C18.1234087,10.2155344 19.4263275,9 21,9 L21,9 L21,7 C21,6.44771525 20.5522847,6 20,6 L20,6 Z M10.6128994,9.20970461 L10.7071068,9.29289322 L12,10.585 L13.2928932,9.29289322 C13.6834175,8.90236893 14.3165825,8.90236893 14.7071068,9.29289322 C15.0675907,9.65337718 15.0953203,10.2206082 14.7902954,10.6128994 L14.7071068,10.7071068 L13.415,12 L14.7071068,13.2928932 C15.0976311,13.6834175 15.0976311,14.3165825 14.7071068,14.7071068 C14.3466228,15.0675907 13.7793918,15.0953203 13.3871006,14.7902954 L13.2928932,14.7071068 L12,13.415 L10.7071068,14.7071068 C10.3165825,15.0976311 9.68341751,15.0976311 9.29289322,14.7071068 C8.93240926,14.3466228 8.90467972,13.7793918 9.20970461,13.3871006 L9.29289322,13.2928932 L10.585,12 L9.29289322,10.7071068 C8.90236893,10.3165825 8.90236893,9.68341751 9.29289322,9.29289322 C9.65337718,8.93240926 10.2206082,8.90467972 10.6128994,9.20970461 Z"/>
</svg>

<svg xmlns="http://www.w3.org/2000/svg" viewBox="0 0 24 24">
  <path d="M20 4a3 3 0 0 1 3 3v3a1 1 0 0 1-1 1h-1a1 1 0 0 0-1 .89V12c0 .52.4.96.89 1H22a1 1 0 0 1 1 1v3a3 3 0 0 1-3 3H4a3 3 0 0 1-3-3v-3a1 1 0 0 1 1-1h1a1 1 0 0 0 1-.89V12a1 1 0 0 0-.89-1H2a1 1 0 0 1-1-1V7a3 3 0 0 1 3-3zm0 2H4a1 1 0 0 0-1 1v2h.22A3 3 0 0 1 6 12.05v.18A3 3 0 0 1 3 15v2a1 1 0 0 0 .88 1H20a1 1 0 0 0 1-1v-2h-.22A3 3 0 0 1 18 11.95v-.18A3 3 0 0 1 21 9V7a1 1 0 0 0-1-1zm-9.39 3.21.1.08L12 10.6l1.3-1.3a1 1 0 0 1 1.49 1.32l-.08.1L13.4 12l1.3 1.3a1 1 0 0 1-1.32 1.49l-.1-.08L12 13.4l-1.3 1.3a1 1 0 0 1-1.49-1.32l.08-.1L10.6 12l-1.3-1.3a1 1 0 0 1 1.32-1.49z"/>
</svg>
